X: 453
T: Dawo ge
L: 1/8
M: 2/4
K: C
d2d e [I:setbarnb 1]| 
A2c2 | 
d e d c | 
d eA2 | 
G2G2 | 
A A c A | 
G2G2 | 
c EG2 | 
d e d c | 
A2c2 | 
A2E2 | 
G2G2 | 
c2c A | 
G2G A | 
D2F A | 
G2z2 |]

@@@ Tune index: 9327
